X:1
T:Ich Dank’ Dir, 76.76 D
T:Musika Deutsch (Nürnberg, German
T:Ich Dank’ Dir, 76.76 D
T:Public Domain
C:Musika Deutsch (N&#252;rnberg, German
Z:Public Domain
%%score ( 1 2 ) ( 3 4 )
L:1/8
M:none
K:G
V:1 treble 
V:2 treble 
V:3 bass 
V:4 bass 
V:1
 [DG]4 [EG]4 [DF]2 [B,G]4 [EA]2 [A,F]4 [B,D]4 | [DA]4 [DB]4 [CA]2 [B,G]2 D2 ^C2 D8 | %2
 [DG]4 [EG]4 [DF]2 [B,G]4 [EA]2 [A,F]4 [B,D]4 | [DA]4 [DB]4 [CA]2 [B,G]2 (D2 ^C2) D8 | %4
 z2 [Fd]2 [Gc]2 [GB]2 [FA]4 [EG]2 (c2 B4) [^CA]4 | [Dd]4 [Ec]4 [=FB]2 [EA]4 [E^G]2 [EA]8 | %6
 z2 D2 [DG]2 [FA]2 [GB]2 [Gc]2 [Fd]4 [DA]4 | [Ec]4 [DB]4 [DA]2 ([Dd]4 [Ec]2) [DB]4 [DA]4 [B,G]8 |] %8
V:2
 x24 | x12 E4 D8 | x24 | x12 E4 D8 | x14 E6 x4 | x24 | x2 D2 x16 | x32 |] %8
V:3
 [G,,B,]4 [C,C]4 [D,A,]2 [E,G,]4 [C,E,]2 [D,F,]4 [G,,G,]4 | %1
 [F,,A,]4 [G,,G,]4 [A,,E,]2 [E,G,]2 [A,,A,]4 [D,F,]8 | %2
 [B,,B,]4 [C,C]4 [D,A,]2 [E,G,]4 [C,E,]2 [D,F,]4 [G,,G,]4 | %3
 [F,,A,]4 [G,,G,]4 [A,,E,]2 [E,G,]2 [A,,A,]4 [D,F,]8 | %4
 z2 [D,A,]2 [E,E]2 [G,D]2 (D2 C2) [E,B,]2 (A,,2 z2 ^G,2) [A,,A,]4 | %5
 [B,,G,]4 [C,G,]4 [D,B,]2 [E,C]4 [E,B,]2 [A,,^C]8 | %6
 z2 [D,F,]2 [B,,G,]2 [A,,C]2 [G,,D]2 [E,G,]2 [D,A,]4 [D,F,]4 | %7
 [C,G,]4 G,4 [D,F,]2 (B,,4 C,2 [D,G,]4) (G,2 F,2) [G,,G,]8 |] %8
V:4
 x24 | x24 | x24 | x24 | x8 D,4 A,4 E,4 x4 | x24 | x20 | x4 G,4 G,6- D,4 x14 |] %8

